X: 1438
T: The Bonnie Boy
M:C|
L:1/8
N:"collected by J. O'Neill"
B:O'Neill's 1438
Z:"Transcribed by Bob Safranek, rjs@gsp.org"
K:A
(ed) | cBAa ((3fga)  ec   | dfec B2 (Bd) |    cBAa ((3fga) ec | dgec A2 (Ad) |
       cBAa ((3fga) (ec)  | dfec B2 (Bd) |    cefg      agbg  | afed cAAd    ||
((3cBA) (ec) fAeA | ((3cBA) (ec) B2 (Bd) | ((3cBA) (eA) fAeA  | dfed cAAd    |
((3cBA) (ec) fAeA |        dfec  B2 (Bd) |    cefg      agbg  | afec A2      |]


